!!!SOCIAL_FUNCTION:	war songs
!!!PDT:	1932
!!!OTL: No_119_Pawakone's_War_Song_(a).krn
!!!REG: Wisconsin
!!!LANG: Non-Tone
!!!LING_GROUP: Algonquin
**kern
*staff1
=1-
*clefF4
*k[f#c#g#]
*M2/4
4r
8.e\L
16e\Jk
=2
2e\
=3
8.d\L
16e\Jk
16e\LK
8.d\J
=4
16d\LK
8.B\J
8.A\L
16A\Jk
=5||
*M3/4
2A\
16A\LK
8.A\J
=6||
*M2/4
2A\
=7
8A\
8r
8.d\L
16d\Jk
=8||
*M3/4
(2d\
8.B\L)
16e\Jk
=9||
*M2/4
16e\LK
8.d\J
16d\LK
8.B\J
=10
8.A\L
16A\Jk
4A\
=11||
*M3/4
16B\LK
8.B\J
16B\LK
8.A\J
12A\L
12F#\
12F#\J
=12
2E\
8D\
8r
=13
16E\LK
8.D\J
16D/LK
8.BB/J
8.AA/L
16AA/Jk
=14||
*M2/4
2AA/
=15
8AA/
8r
8.D\L
16D\Jk
=16||
*M3/4
2D\
8BB/
8r
=17||
*M2/4
16E\LK
8.D\J
16D/LK
8.BB/J
=18
8.AA/L
16AA/Jk
4AA/
=19||
*M3/4
16BB/LK
8.BB/J
16BB/LK
8.AA/J
8.AA/L
16AA/Jk
=20
2AA/
8AA/
8r
==
*-
